16x16/devices/device_usb.svg

<svg height="16" width="16" xmlns="http://www.w3.org/2000/svg"><path d="m8 0-2.5 4h1.5v5h-3v-1.271a2 2 0 0 0 1-1.729 2 2 0 1 0 -3 1.73v1.27c0 2 2 2 2 2h3v1.271a2 2 0 0 0 -1 1.729 2 2 0 1 0 3-1.73v-1.27h3s2 0 2-2v-1s1.125-.188 1-1v-2c.125-1.125-1-1-1-1h-2c-1.063 0-1 1-1 1v2c0 1 1 1 1 1v1h-3v-5h1.5z" fill="#8b9cbe"/></svg>

<svg xmlns="http://www.w3.org/2000/svg" width="16" height="16"><defs><style id="current-color-scheme" type="text/css"></style></defs><path style="fill:currentColor;color:#8b9cbe" d="M8 0 5.5 4H7v5H4V7.729A2 2 0 0 0 5 6a2 2 0 1 0-3 1.73V9c0 2 2 2 2 2h3v1.271A2 2 0 0 0 6 14a2 2 0 1 0 3-1.73V11h3s2 0 2-2V8s1.125-.188 1-1V5c.125-1.125-1-1-1-1h-2c-1.063 0-1 1-1 1v2c0 1 1 1 1 1v1H9V4h1.5L8 0z"/></svg>
